X: 1
T: Black Rocks of Glencoe  v.1
P: piffero primo a0012
O: Greg Rice
%R: march
F: http://ancients.sudburymuster.org/mus/ssp/pdf/closingF.pdf
Z: 2019 John Chambers <jc:trillian.mit.edu>
M: 2/4
L: 1/16
K: Em
BA |\
B2B2 e2ef | gfef d2ef | g2e2 e2dc | defg a2 BA |\
B2B2 e2ef | gfef d2ef | gfed edBA | B3E E2 :|
|: Bd |\
e2Be g2fe | fede B2BA | GABd gfed | e6 Bd |\
e2Be g2ga | bgaf d2ef | bagf gfed | e6 :|
